X:243
T:McKenna's #2
T:Happy Days of Youth, The
T:Thos Byrne's
R:reel
D:Dervish: The Boys of Sligo
Z:id:hn-reel-243
M:C|
K:G
~e3d ~B3A|GABG AGED|G2AG de~e2|dBAd BG~G2|
gfed edBA|~G2BG AGED|G2AG de~e2|dBAd BG~G2||
fgag fedB|eBfa ~g3f|eB~B2 gfed|BAGA BA~A2|
f2ag fedB|eBfa ~g3a|bgaf gfed|(3efg af ~g3f||
P:Version 2:
|:e2ed ~B3A|GABG AE~E2|G2GE dBeB|dBAd BG~G2:|
faaf gfed|(3Bcd ef gafg|eB~B2 gedB|BAB^c dcde|
faaf gfed|(3Bcd ef ~g3f|g2af geed|eaaf ~g3f||
P:Variations
~e3d ~B3A|GABG AE~E2|~G3B dBeB|dBAc BGBd|
efed BdBA|GABG AE~E2|~G3B dBeB|dBAc BGG2||
faaf gfed|(3Bcd ef ~g3f|eB~B2 gfed|BAGA Bcde|
faaf gfed|(3Bcd ef ~g3a|bgaf gfed|(3efg af ~g3f||

